client/public/img/game/winter/obstacles/frozen_crate_1.svg

<?xml version="1.0" encoding="UTF-8" standalone="no"?>
<!-- Created with Inkscape (http://www.inkscape.org/) -->

<svg
   width="185"
   height="185"
   viewBox="0 0 48.947917 48.947917"
   version="1.1"
   id="svg5"
   xmlns="http://www.w3.org/2000/svg"
   xmlns:svg="http://www.w3.org/2000/svg">
  <defs
     id="defs2">
    <mask
       id="a"
       width="60"
       height="60"
       x="-30"
       y="-30"
       maskUnits="userSpaceOnUse">
      <path
         fill="#ffffff"
         d="M -27,-27 H 27 V 27 H -27 Z"
         id="path907" />
      <path
         d="m 2,-23 v -4 h -4 v 4 m 1.5,17 v 4 h 1 v -4"
         id="path909" />
      <circle
         cy="-15"
         r="10.5"
         id="circle911"
         cx="0" />
      <g
         transform="rotate(120)"
         id="g917">
        <path
           d="m 2,-23 v -4 h -4 v 4 m 1.5,17 v 4 h 1 v -4"
           id="path913" />
        <circle
           cy="-15"
           r="10.5"
           id="circle915"
           cx="0" />
      </g>
      <g
         transform="rotate(-120)"
         id="g923">
        <path
           d="m 2,-23 v -4 h -4 v 4 m 1.5,17 v 4 h 1 v -4"
           id="path919" />
        <circle
           cy="-15"
           r="10.5"
           id="circle921"
           cx="0" />
      </g>
      <circle
         r="3"
         id="circle925"
         cx="0"
         cy="0" />
    </mask>
    <clipPath
       id="b">
      <circle
         cy="-15"
         r="9.5"
         id="circle900"
         cx="0" />
      <circle
         cy="-15"
         r="9.5"
         transform="rotate(120)"
         id="circle902"
         cx="0" />
      <circle
         cy="-15"
         r="9.5"
         transform="rotate(-120)"
         id="circle904"
         cx="0" />
    </clipPath>
  </defs>
  <g
     id="layer1">
    <g
       id="g865"
       transform="matrix(1.9616501,0,0,1.9616501,4.1209673e-4,4.1209673e-4)">
      <g
         id="g66566"
         transform="rotate(90,12.476,12.476)">
        <rect
           style="fill:#674b24;fill-opacity:1;stroke:none;stroke-width:0.798207;stroke-linecap:butt;stroke-linejoin:miter;stroke-miterlimit:4;stroke-dasharray:none;stroke-opacity:1"
           id="rect66532"
           width="16.9"
           height="16.9"
           x="4"
           y="4" />
        <path
           id="path66542"
           style="fill:#9e7437;stroke-width:0;stroke-linecap:round"
           d="M 0.49998583,0.49998698 V 24.452013 H 24.452014 V 0.49998698 Z M 4.5410828,4.541084 H 20.410916 V 20.410916 H 4.5410828 Z" />
        <rect
           style="fill:none;fill-opacity:1;stroke:none;stroke-width:1;stroke-linecap:butt;stroke-linejoin:bevel;stroke-miterlimit:4;stroke-dasharray:none;stroke-opacity:1"
           id="rect66544"
           width="16.9"
           height="16.9"
           x="4"
           y="4" />
        <rect
           style="fill:none;fill-opacity:1;stroke:#3f2e16;stroke-width:1;stroke-linecap:butt;stroke-linejoin:miter;stroke-miterlimit:4;stroke-dasharray:none;stroke-opacity:1"
           id="rect66554"
           width="15.870146"
           height="15.870145"
           x="4.540925"
           y="4.5409274" />
        <rect
           style="fill:none;fill-opacity:1;stroke:#3f2e16;stroke-width:1;stroke-linecap:round;stroke-linejoin:round;stroke-miterlimit:4;stroke-dasharray:none;stroke-opacity:1"
           id="rect66556"
           width="23.952419"
           height="23.952419"
           x="0.49978992"
           y="0.49978992" />
        <path
           style="fill:none;stroke:#3f2e16;stroke-width:1;stroke-linecap:butt;stroke-linejoin:miter;stroke-miterlimit:4;stroke-dasharray:none;stroke-opacity:1"
           d="m 20.411072,4.5409274 h 4"
           id="path66558" />
        <path
           style="fill:none;stroke:#3f2e16;stroke-width:1;stroke-linecap:butt;stroke-linejoin:miter;stroke-miterlimit:4;stroke-dasharray:none;stroke-opacity:1"
           d="m 20.411072,20.411072 h 4"
           id="path66560" />
        <path
           style="fill:none;stroke:#3f2e16;stroke-width:1;stroke-linecap:butt;stroke-linejoin:miter;stroke-miterlimit:4;stroke-dasharray:none;stroke-opacity:1"
           d="M 0.54092503,20.411072 H 4.540925"
           id="path66562" />
        <path
           style="fill:none;stroke:#3f2e16;stroke-width:1;stroke-linecap:butt;stroke-linejoin:miter;stroke-miterlimit:4;stroke-dasharray:none;stroke-opacity:1"
           d="M 0.54092503,4.5409274 H 4.540925"
           id="path66564" />
      </g>
      <g
         id="g958"
         transform="matrix(0.29352477,0,0,0.30386953,11.175947,11.922178)"
         style="fill:#332a00;fill-opacity:1;stroke:none;stroke-opacity:1">
        <g
           id="g2312"
           transform="matrix(0.95833334,0,0,0.95833334,0.90047659,-1.8798139)"
           style="fill:#332a00;fill-opacity:1;stroke:none;stroke-opacity:1">
          <g
             mask="url(#a)"
             id="g936"
             style="fill:#332a00;fill-opacity:1;stroke:none;stroke-opacity:1"
             transform="matrix(0.97854222,0,0,0.97853768,4,4.6909786)">
            <circle
               cy="-11"
               r="15"
               id="circle930"
               style="fill:#332a00;fill-opacity:1;stroke:none;stroke-opacity:1"
               cx="0" />
            <circle
               cy="-11"
               r="15"
               transform="rotate(120)"
               id="circle932"
               style="fill:#332a00;fill-opacity:1;stroke:none;stroke-opacity:1"
               cx="0" />
            <circle
               cy="-11"
               r="15"
               transform="rotate(-120)"
               id="circle934"
               style="fill:#332a00;fill-opacity:1;stroke:none;stroke-opacity:1"
               cx="0" />
          </g>
          <circle
             r="11.75"
             fill="none"
             stroke="#000"
             stroke-width="3.5"
             clip-path="url(#b)"
             id="circle938"
             style="fill:#332a00;fill-opacity:1;stroke:none;stroke-opacity:1"
             cx="0"
             cy="0"
             transform="matrix(0.97854222,0,0,0.97853768,4,4.6909786)" />
        </g>
      </g>
      <g
         id="g1">
        <path
           id="rect62437-8"
           style="opacity:0.7;fill:#b2d1f0;fill-opacity:1;stroke:#4a95dd;stroke-width:0.999985;stroke-linecap:round;stroke-linejoin:round;stroke-miterlimit:4;stroke-dasharray:none;stroke-opacity:1"
           d="M 0.50160515,0.50056868 V 13.932516 C 6.3868127,14.482844 -0.44794374,12.2269 4.5250241,8.6775419 4.9455425,8.3831775 10.488218,11.24934 10.957293,11.040867 10.525986,9.2383757 15.862604,1.6371475 16.958236,0.50056868 Z m 0,19.66044832 v 4.291979 L 8.1319996,24.500683 8.8688069,19.88776 C 9.1274513,19.31293 6.4377346,19.957993 5.9661171,18.371586 5.402409,16.475408 0.50160515,19.980834 0.50160515,20.161017 Z" />
        <path
           id="rect62437-8-3"
           style="opacity:0.7;fill:#b2d1f0;fill-opacity:1;stroke:#4a95dd;stroke-width:0.999985;stroke-linecap:round;stroke-linejoin:round;stroke-miterlimit:4;stroke-dasharray:none;stroke-opacity:1"
           d="M 24.452137,4.7347785 V 0.44279949 l -4.769201,0.0715264 1.475514,4.12544661 3.361126,1.3426241 z" />
        <path
           id="rect62437-8-4"
           style="opacity:0.7;fill:#b2d1f0;fill-opacity:1;stroke:#4a95dd;stroke-width:0.999985;stroke-linecap:round;stroke-linejoin:round;stroke-miterlimit:4;stroke-dasharray:none;stroke-opacity:1"
           d="M 24.433258,24.449874 V 11.017927 c -0.785186,-0.07342 -3.256833,-3.0291142 -3.766746,-2.6119572 -2.390791,1.0252485 -2.438091,0.9460084 -3.614484,3.7018372 -1.481871,1.755233 -4.137799,2.258234 -2.556454,5.833667 0.643056,1.453955 -1.454849,3.040586 -2.131783,6.5084 z" />
      </g>
    </g>
  </g>
</svg>

<svg xmlns="http://www.w3.org/2000/svg" width="185" height="185" viewBox="0 0 48.948 48.948"><defs><clipPath id="b"><circle cy="-15" r="9.5"/><circle cy="-15" r="9.5" transform="rotate(120)"/><circle cy="-15" r="9.5" transform="rotate(-120)"/></clipPath><mask id="a" width="60" height="60" x="-30" y="-30" maskUnits="userSpaceOnUse"><path fill="#fff" d="M-27-27h54v54h-54Z"/><path d="M2-23v-4h-4v4M-.5-6v4h1v-4"/><circle cy="-15" r="10.5"/><g transform="rotate(120)"><path d="M2-23v-4h-4v4M-.5-6v4h1v-4"/><circle cy="-15" r="10.5"/></g><g transform="rotate(-120)"><path d="M2-23v-4h-4v4M-.5-6v4h1v-4"/><circle cy="-15" r="10.5"/></g><circle r="3"/></mask></defs><path d="M4 4h16.9v16.9H4z" style="fill:#674b24;fill-opacity:1;stroke:none;stroke-width:.798207;stroke-linecap:butt;stroke-linejoin:miter;stroke-miterlimit:4;stroke-dasharray:none;stroke-opacity:1" transform="matrix(0 1.96165 -1.96165 0 48.948 0)"/><path d="M.5.5v23.952h23.952V.5Zm4.041 4.041h15.87v15.87H4.54Z" style="fill:#9e7437;stroke-width:0;stroke-linecap:round" transform="matrix(0 1.96165 -1.96165 0 48.948 0)"/><path d="M4 4h16.9v16.9H4z" style="fill:none;fill-opacity:1;stroke:none;stroke-width:1;stroke-linecap:butt;stroke-linejoin:bevel;stroke-miterlimit:4;stroke-dasharray:none;stroke-opacity:1" transform="matrix(0 1.96165 -1.96165 0 48.948 0)"/><path d="M4.541 4.541h15.87v15.87H4.541z" style="fill:none;fill-opacity:1;stroke:#3f2e16;stroke-width:1;stroke-linecap:butt;stroke-linejoin:miter;stroke-miterlimit:4;stroke-dasharray:none;stroke-opacity:1" transform="matrix(0 1.96165 -1.96165 0 48.948 0)"/><path d="M.5.5h23.952v23.952H.5z" style="fill:none;fill-opacity:1;stroke:#3f2e16;stroke-width:1;stroke-linecap:round;stroke-linejoin:round;stroke-miterlimit:4;stroke-dasharray:none;stroke-opacity:1" transform="matrix(0 1.96165 -1.96165 0 48.948 0)"/><path d="M20.411 4.54h4M20.411 20.411h4M.54 20.411h4M.54 4.54h4" style="fill:none;stroke:#3f2e16;stroke-width:1;stroke-linecap:butt;stroke-linejoin:miter;stroke-miterlimit:4;stroke-dasharray:none;stroke-opacity:1" transform="matrix(0 1.96165 -1.96165 0 48.948 0)"/><g style="fill:#332a00;fill-opacity:1;stroke:none;stroke-opacity:1" transform="matrix(.53996 0 0 .55899 24.65 24.947)"><g mask="url(#a)" style="fill:#332a00;fill-opacity:1;stroke:none;stroke-opacity:1"><circle cy="-11" r="15" style="fill:#332a00;fill-opacity:1;stroke:none;stroke-opacity:1"/><circle cy="-11" r="15" style="fill:#332a00;fill-opacity:1;stroke:none;stroke-opacity:1" transform="rotate(120)"/><circle cy="-11" r="15" style="fill:#332a00;fill-opacity:1;stroke:none;stroke-opacity:1" transform="rotate(-120)"/></g><circle r="11.75" fill="none" clip-path="url(#b)" style="fill:#332a00;fill-opacity:1;stroke:none;stroke-opacity:1"/></g><path d="M.502.5v13.433c5.885.55-.95-1.706 4.023-5.255.42-.295 5.963 2.571 6.432 2.363-.431-1.803 4.906-9.404 6.001-10.54Zm0 19.661v4.292l7.63.048.737-4.613c.258-.575-2.431.07-2.903-1.516C5.402 16.475.502 19.98.502 20.16M24.452 4.735V.443l-4.77.071 1.476 4.126 3.362 1.342zM24.433 24.45V11.018c-.785-.073-3.257-3.03-3.766-2.612-2.391 1.025-2.439.946-3.615 3.702-1.482 1.755-4.138 2.258-2.556 5.833.643 1.454-1.455 3.041-2.132 6.509z" style="opacity:.7;fill:#b2d1f0;fill-opacity:1;stroke:#4a95dd;stroke-width:.999985;stroke-linecap:round;stroke-linejoin:round;stroke-miterlimit:4;stroke-dasharray:none;stroke-opacity:1" transform="scale(1.96165)"/></svg>
